X:1
T:The Threesome Reel
T:The Threesome Reel
T:(48S+48R)
L:1/8
M:4/4
K:D
V:1 treble 
V:1
"^Mrs Stewart Nicholson's Strathspey" A |"D" F>E DF"Em" B,<B, E2 |"A7" D/C/B,/A,/ A,B,/C/"D" DFAd | %3
"D" F>E DF"Em" B,<B, E2 |"A7" D/C/B,/A,/ A,B,/C/"D" D2 D :| B |"D" Ad"Bm" de/f/"Em" e<B B>e | %7
"A7" c>B AB/c/"D" d/e/f/g/ a>d |"D" Ad de/f/"G" gB"Em" B>e |"A7" c>B A/B/c/A/"D" d2 D || B | %11
"D" Ad"Bm" de/f/"Em" eB B>e |"A7" c>B AB/c/"D" d/e/f/g/ a>d |"D" Ad"G" Bd"F#m" A<B"Bm" F>D | %14
"Em" D/C/B,/A,/"A7" B,C"D" D2 D |]:[K:A][M:2/2]"Bm""^Sleepy Maggie" f2 Bb fBde | f2 Ba"A" eAce | %17
"Bm" f2 Bb fBde |"^(D)" fgaf"A" eAce :|"Bm" fBdB fBde | fBdB"A" eAce |"Bm" fBdB fBde | %22
"^(D)" fgaf"A" eAce || x8 |"Bm" fBdB fBde | fBdB"A" eAce |"Bm" fBbB aBgB | %27
"^(D)" fgaf"A" !fermata!eAce |] %28

